X:1
T:Title
%%score { ( 1 2 3 ) | ( 4 5 6 ) }
L:1/8
Q:1/4=100
M:4/4
K:C
V:1 treble nm="Grand Piano"
V:2 treble 
V:3 treble 
V:4 bass 
V:5 bass 
V:6 bass 
V:1
 z2 [FA]2 z4 | [Ec]2 z2 [Ge]2 [Ec]2 | [FA]2 [Ac]2 z4[K:bass] | z2 =F2 z4 | z2 [FA]2 z4 | %5
 [Ec]2 z2 [Ge]2 [Ec]2 | [FA]2 [Ac]2 z .[Ec]3 | e2 d2 z4 | [EG]2 [FA]>[EG] [CE] .[EG]3 | %9
 [FA]2 [Ac]>[FA] [EG] .[Ec]3 | [Gd]2 [Gc]>[Gd] [Ge] [Ec]2 [GB] | [FA]2 [^Fd]>[Fc] [GB]4 | %12
[M:9/8] [Ec]2 [Gd]- [Gd]/[Ge]/[Af]A- A2 A |[M:4/4] G2 e>d [Ec]4 |] %14
V:2
 [EG]2 z z/ G/ E2 [EG][EG] | z A,dd z z/ d/ CC | z2 z C z4[K:bass] | [G,DG]^F z z/ D/ E4 | %4
 [EG]2 z z/ G/ E2 [EG][EG] | z G,dd z z/ d/ CC | CC .C>A [CEG]CCd | z C z z/ d/ [Ec]4 | x8 | x8 | %10
 x8 | x8 |[M:9/8] x9 |[M:4/4] x8 |] %14
V:3
 z2 z C z4 | z4 z C z2 | [A,C][A,C] z z/ A/ [G,CEG][K:bass][G,CE][E,G,CD][E,G,C] | z2 z G, z4 | %4
 z2 z C z4 | z4 z C z2 | z2 z C z4 | z2 z B, z4 | x8 | x8 | x8 | x8 |[M:9/8] x9 |[M:4/4] x8 |] %14
V:4
 [C,C][C,C] .[C,C]>E [C,C][C,C][C,C][C,C] | %1
 [C,A,]C,[K:treble][G,B,G][G,B,G][K:bass] .[C,C]>F C,C, | z2 z [F,A,] z4 | %3
 B,,[D,A,C] .[G,B,]>B, [C,G,C]4 | [C,C][C,C] .[C,C]>E [C,C][C,C][C,C][C,C] | %5
 [C,G,]C,[K:treble][G,B,G][G,B,G][K:bass] .[C,C]>F C,C, | F,F, .F,>F C,C,C,[K:treble][G,B,G] | %7
 .[G,C]2 F2[K:bass] z4 | [C,C]2 [C,C]>[C,C] [C,G,] .[C,C]3 | [F,C]2 [F,C]>[F,C] [C,C] .[C,G,]3 | %10
 [G,B,]2 [E,C]>[D,B,] [C,C] [C,G,]2 [E,C] | [F,C]2 [D,D]>[D,D] [G,D]4 | %12
[M:9/8] [C,C]2 [G,B,]- [G,B,]/[C,C]/[F,C][K:treble][F,CF]- [F,CF]2 [F,CF] | %13
[M:4/4] [G,CE]2 [G,B,G]>[G,B,F][K:bass] [C,C]4 |] %14
V:5
 z2 z C, z4 | z4[K:treble][K:bass] z C, z2 | F,F, .[F,A,C]>F C,C,C,C, | z2 z G,, z4 | z2 z C, z4 | %5
 z4[K:treble][K:bass] z C, z2 | z2 z F, z4[K:treble] | G-[G,G] .[G,B,]>F[K:bass] [C,C]4 | x8 | x8 | %10
 x8 | x8 |[M:9/8] x5[K:treble] x4 |[M:4/4] x4[K:bass] x4 |] %14
V:6
 x8 | x2[K:treble] x2[K:bass] x4 | x8 | x8 | x8 | x2[K:treble] x2[K:bass] x4 | x7[K:treble] x | %7
 z2 z G,[K:bass] z4 | x8 | x8 | x8 | x8 |[M:9/8] x5[K:treble] x4 |[M:4/4] x4[K:bass] x4 |] %14

